KINDER
CUT[ES GEHT EIN GROSSER RUNDGESANG]
REG[Europa, Mitteleuropa, Deutschland, Kassel]
KEY[K2619  16  F 2/4]
MEL[-5_  1_1_5_5_  3_.31_
    1_  2_2_-5_-5_  1__0__
    2_2_2_2_  3_5_5_
    2_  2_2_2_2_  3_5_5_
    -5_  1_1_5_5_  3_.21_
    1_  2_2_-5_-5_  1__0_ //] >>
FCT[Kinder - Lied, Gesellschafts - Spiel]
